X:1
T:Fehér fuszulykavirág
C:Hungarian folk song
Z:Public Domain
L:1/8
M:4/4
K:C
V:1 treble nm="Voice"
%%MIDI program 52
V:1
 c c3 c c3 | B2 GA B4 | A A3 A3 B | A G3 G2 z2 | F F3 F2 F2 | E2 CD E4 | D D3 D3 E | D C3 C2 z2 |] %8
w: Fe- hér fu- szuly-|ka- vi _ rág,|me jöjj hoz- zám|nap- vi- lág,|Gye- re ho- zám|sö- tét _ be,|hadd ül- jek az|ö- led- be.|

